src/cmd/32/ar/defaultbullet.svg

<svg viewBox="0 0 32 32" xmlns="http://www.w3.org/2000/svg"><path d="m21 4v1h-17v-1zm0 3v1h-13v-1zm0 7v1h-17v-1zm0 3v1h-4v-1zm0 7v1h-17v-1zm0 3v1h-11v-1zm-13 1v1h-4v-1z" fill="#232629"/><path d="m26.5 4a1.5 1.5 0 0 1 1.5 1.5 1.5 1.5 0 0 1 -1.5 1.5 1.5 1.5 0 0 1 -1.5-1.5 1.5 1.5 0 0 1 1.5-1.5zm0 10a1.5 1.5 0 0 1 1.5 1.5 1.5 1.5 0 0 1 -1.5 1.5 1.5 1.5 0 0 1 -1.5-1.5 1.5 1.5 0 0 1 1.5-1.5zm0 10a1.5 1.5 0 0 1 1.5 1.5 1.5 1.5 0 0 1 -1.5 1.5 1.5 1.5 0 0 1 -1.5-1.5 1.5 1.5 0 0 1 1.5-1.5z" fill="#762572"/></svg>

<?xml version="1.0" encoding="UTF-8" standalone="no"?>
<svg
   xmlns:dc="http://purl.org/dc/elements/1.1/"
   xmlns:cc="http://creativecommons.org/ns#"
   xmlns:rdf="http://www.w3.org/1999/02/22-rdf-syntax-ns#"
   xmlns:svg="http://www.w3.org/2000/svg"
   xmlns="http://www.w3.org/2000/svg"
   xmlns:sodipodi="http://sodipodi.sourceforge.net/DTD/sodipodi-0.dtd"
   xmlns:inkscape="http://www.inkscape.org/namespaces/inkscape"
   viewBox="0 0 32 32"
   version="1.1"
   id="svg6"
   sodipodi:docname="defaultbullet.svg"
   inkscape:version="0.92.4 (5da689c313, 2019-01-14)"
   inkscape:export-filename="/home/jupiter007/Libreoffice yaru theme/build/cmd/32/ar/defaultbullet.png"
   inkscape:export-xdpi="96"
   inkscape:export-ydpi="96">
  <metadata
     id="metadata12">
    <rdf:RDF>
      <cc:Work
         rdf:about="">
        <dc:format>image/svg+xml</dc:format>
        <dc:type
           rdf:resource="http://purl.org/dc/dcmitype/StillImage" />
        <dc:title />
      </cc:Work>
    </rdf:RDF>
  </metadata>
  <defs
     id="defs10" />
  <sodipodi:namedview
     pagecolor="#ffffff"
     bordercolor="#666666"
     borderopacity="1"
     objecttolerance="10"
     gridtolerance="10"
     guidetolerance="10"
     inkscape:pageopacity="0"
     inkscape:pageshadow="2"
     inkscape:window-width="1920"
     inkscape:window-height="1011"
     id="namedview8"
     showgrid="true"
     inkscape:zoom="10.429825"
     inkscape:cx="-29.411727"
     inkscape:cy="32.357864"
     inkscape:window-x="0"
     inkscape:window-y="32"
     inkscape:window-maximized="1"
     inkscape:current-layer="svg6">
    <inkscape:grid
       type="xygrid"
       id="grid822" />
  </sodipodi:namedview>
  <path
     d="M 21,4 V 5 H 4 V 4 Z m 0,3 V 8 H 4 V 7 Z m 0,7 v 1 H 4 v -1 z m 0,3 v 1 H 4 v -1 z m 0,7 v 1 H 4 v -1 z m 0,3 v 1 H 4 v -1 z"
     id="path2"
     inkscape:connector-curvature="0"
     style="fill:#232629"
     sodipodi:nodetypes="cccccccccccccccccccccccccccccc" />
  <path
     d="M 26.5,4 A 1.5,1.5 0 0 1 28,5.5 1.5,1.5 0 0 1 26.5,7 1.5,1.5 0 0 1 25,5.5 1.5,1.5 0 0 1 26.5,4 Z m 0,10 A 1.5,1.5 0 0 1 28,15.5 1.5,1.5 0 0 1 26.5,17 1.5,1.5 0 0 1 25,15.5 1.5,1.5 0 0 1 26.5,14 Z m 0,10 A 1.5,1.5 0 0 1 28,25.5 1.5,1.5 0 0 1 26.5,27 1.5,1.5 0 0 1 25,25.5 1.5,1.5 0 0 1 26.5,24 Z"
     id="path4"
     inkscape:connector-curvature="0"
     style="fill:#762572" />
</svg>
